static/img/mobile/statusbar-ios-dark.svg

<svg fill="none" height="165" viewBox="0 0 960 165" width="960" xmlns="http://www.w3.org/2000/svg" xmlns:xlink="http://www.w3.org/1999/xlink"><clipPath id="a"><path d="m0 0h960v165h-960z"/></clipPath><clipPath id="b"><path d="m582.5 52h21v21h-21z"/></clipPath><clipPath id="c"><path d="m608.5 52h21v21h-21z"/></clipPath><clipPath id="d"><path d="m634.5 52h21v21h-21z"/></clipPath><g clip-path="url(#a)"><rect fill="#252a2e" height="125" rx="8" width="960"/><path d="m308.191 67.5h1.89v-10.5688h-1.882l-2.761 1.9409v1.7798l2.629-1.8604h.124zm4.527 0h7.339v-1.5674h-4.783v-.1538l2.117-2.0508c1.926-1.853 2.505-2.8051 2.505-4.0063v-.022c0-1.7798-1.48-3.0322-3.538-3.0322-2.204 0-3.742 1.3769-3.742 3.3471l.007.022 1.758.0073.007-.0293c0-1.0913.754-1.831 1.875-1.831 1.099 0 1.765.7031 1.765 1.6772v.022c0 .813-.403 1.3477-1.838 2.7979l-3.472 3.5449zm10.496-6.8481c.674 0 1.165-.5127 1.165-1.1573 0-.6518-.491-1.1572-1.165-1.1572-.667 0-1.165.5054-1.165 1.1572 0 .6446.498 1.1573 1.165 1.1573zm0 5.4345c.674 0 1.165-.5053 1.165-1.1572s-.491-1.1572-1.165-1.1572c-.667 0-1.165.5053-1.165 1.1572s.498 1.1572 1.165 1.1572zm8.152 1.4136h1.809v-2.0288h1.421v-1.5601h-1.421v-6.9799h-2.673c-1.436 2.1826-2.937 4.6142-4.307 6.9946v1.5454h5.171zm-3.413-3.5449v-.1099c1.025-1.7944 2.249-3.75 3.333-5.4053h.109v5.5152zm12.261 3.7573c2.432 0 4.124-1.2598 4.124-3.0688v-.0147c0-1.355-.982-2.4023-2.395-2.688v-.0439c1.208-.3223 2.014-1.2085 2.014-2.3438v-.0146c0-1.626-1.553-2.8198-3.743-2.8198s-3.743 1.1938-3.743 2.8198v.0146c0 1.1353.806 2.0215 2.015 2.3438v.0439c-1.407.2857-2.395 1.333-2.395 2.688v.0147c0 1.809 1.691 3.0688 4.123 3.0688zm0-6.416c-1.106 0-1.875-.6445-1.875-1.5674v-.0146c0-.9229.769-1.5674 1.875-1.5674s1.875.6445 1.875 1.5674v.0146c0 .9229-.769 1.5674-1.875 1.5674zm0 4.9731c-1.267 0-2.168-.7324-2.168-1.7505v-.0146c0-1.0254.886-1.7651 2.168-1.7651 1.274 0 2.168.7397 2.168 1.7651v.0146c0 1.0181-.901 1.7505-2.168 1.7505z" fill="#fff"/><g clip-path="url(#b)"><path d="m591.355 61.7737h-1.566c-.411 0-.683.2888-.683.7088v4.935c0 .42.272.7087.683.7087h1.566c.411 0 .682-.2887.682-.7087v-4.935c0-.42-.271-.7088-.682-.7088zm-4.856 2.03h-1.566c-.412 0-.683.28-.683.7v2.9138c0 .42.271.7087.683.7087h1.566c.411 0 .682-.2887.682-.7087v-2.9138c0-.42-.271-.7-.682-.7zm9.712-4.375h-1.566c-.411 0-.682.2888-.682.7088v7.28c0 .42.271.7087.682.7087h1.566c.403 0 .683-.2887.683-.7087v-7.28c0-.42-.28-.7088-.683-.7088zm4.865-2.5637h-1.575c-.402 0-.682.2887-.682.7087v9.8438c0 .42.28.7087.682.7087h1.575c.403 0 .674-.2887.674-.7087v-9.8438c0-.42-.271-.7087-.674-.7087z" fill="#fff"/></g><g clip-path="url(#c)"><path d="m619.001 65.0637c-1.103 0-2.039.5775-2.529 1.2425-.079.1225-.044.2625.079.3763l1.846 1.7762c.298.28.438.3675.604.3675s.315-.0787.604-.3675l1.855-1.7762c.113-.1138.14-.28.035-.42-.49-.6388-1.427-1.19-2.503-1.19zm0-4.445c-2.371 0-4.498 1.0588-5.644 2.4588-.114.14-.105.2887.026.4287l1.182 1.1813c.166.1575.376.14.525-.0263.91-1.015 2.397-1.75 3.92-1.7412 1.531 0 3.027.7525 3.955 1.7675.14.1575.323.1487.49 0l1.181-1.1725c.122-.1225.14-.2888.026-.4288-1.146-1.4087-3.272-2.4587-5.644-2.4587zm8.671-.6037c-1.785-2.205-5.145-3.8238-8.671-3.8238s-6.895 1.6188-8.671 3.8238c-.105.1312-.105.2975.026.4375l1.05 1.0675c.149.1487.367.1487.507 0 1.873-1.9863 4.332-3.0363 7.088-3.0363s5.25 1.0588 7.105 3.0363c.14.14.341.1312.49-.0175l1.05-1.05c.14-.14.131-.3063.026-.4375z" fill="#fff" opacity=".85"/></g><g clip-path="url(#d)"><path d="m646.094 60.1375h-7.149c-.42 0-.665.0612-.831.2275-.158.1662-.228.4112-.228.8225v2.6425c0 .4112.062.6475.228.8137.166.1663.411.2275.814.2275h7.166c.411 0 .647-.0612.814-.2275.166-.1662.227-.4025.227-.8137v-2.6513c0-.4112-.061-.6475-.227-.8137-.167-.1663-.403-.2275-.814-.2275zm2.598-1.6363h-9.301c-.997 0-1.846.0963-2.45.7-.604.6038-.691 1.4525-.691 2.4325v1.715c0 1.015.087 1.8463.691 2.45.604.6038 1.453.7 2.459.7h9.292c1.015 0 1.864-.0962 2.468-.7.604-.6037.691-1.4437.691-2.45v-1.6975c0-1.015-.087-1.8462-.691-2.45-.604-.6037-1.453-.7-2.468-.7zm2.206 5.005c0 .6125-.079 1.2425-.438 1.6013-.359.3587-.998.4375-1.601.4375h-9.616c-.613 0-1.252-.0788-1.611-.4375-.358-.3588-.428-.9975-.428-1.6013v-2.0037c0-.6213.078-1.2513.428-1.61.359-.3588 1.007-.4375 1.628-.4375h9.599c.612 0 1.251.0787 1.601.4375.359.3587.438.9887.438 1.5925zm1.758-2.5375v3.0538c.464-.0263 1.094-.63 1.094-1.5313 0-.9012-.63-1.4962-1.094-1.5225z" fill="#fff" opacity=".85"/></g><path d="m3.93555 159h-2.29493v-10.801h2.29493zm-2.43164-13.662c0-.41.11067-.726.33203-.947.22786-.222.55013-.332.96679-.332.40365 0 .71615.11.9375.332.22787.221.3418.537.3418.947 0 .391-.11393.7-.3418.928-.22135.221-.53385.332-.9375.332-.41666 0-.73893-.111-.96679-.332-.22136-.228-.33203-.537-.33203-.928zm18.89259 6.504c0 2.324-.5827 4.131-1.7481 5.42-1.1588 1.289-2.8027 1.933-4.9316 1.933-2.155 0-3.81185-.638-4.97071-1.914-1.15234-1.282-1.72851-3.102-1.72851-5.459s.57943-4.166 1.73828-5.429c1.16536-1.263 2.82554-1.895 4.98044-1.895 2.1224 0 3.763.641 4.9219 1.924 1.1589 1.282 1.7383 3.089 1.7383 5.42zm-10.89845 0c0 1.758.35481 3.092 1.06445 4.004.7096.905 1.7611 1.357 3.1543 1.357 1.3867 0 2.4316-.449 3.1348-1.348.7096-.898 1.0644-2.236 1.0644-4.013 0-1.752-.3515-3.08-1.0547-3.985-.6966-.905-1.7383-1.357-3.125-1.357-1.3997 0-2.4577.452-3.1738 1.357-.70964.905-1.06445 2.233-1.06445 3.985zm22.44725 3.281c0 1.27-.459 2.266-1.3769 2.988-.918.723-2.1843 1.084-3.7989 1.084s-2.9362-.25-3.9648-.752v-2.207c.651.306 1.3411.547 2.0703.723.7357.176 1.4193.264 2.0508.264.9245 0 1.6048-.176 2.041-.528.4427-.351.6641-.823.6641-1.416 0-.534-.2019-.986-.6055-1.357-.4037-.371-1.237-.811-2.5-1.318-1.3021-.528-2.2201-1.13-2.7539-1.807-.5339-.677-.8008-1.491-.8008-2.442 0-1.191.4232-2.128 1.2695-2.812.8464-.684 1.9825-1.025 3.4082-1.025 1.3672 0 2.7279.299 4.0821.898l-.7422 1.904c-1.2695-.534-2.4024-.8-3.3985-.8-.7552 0-1.3281.166-1.7187.498-.3906.325-.5859.758-.5859 1.298 0 .372.0781.691.2343.957.1563.261.4134.508.7715.743.3581.234 1.0026.543 1.9336.927 1.0482.437 1.8164.843 2.3047 1.221s.8464.804 1.0742 1.279c.2279.476.3418 1.036.3418 1.68z" fill="#fff"/></g></svg>

<svg width="960" height="165" viewBox="0 0 960 165" fill="none" xmlns="http://www.w3.org/2000/svg"><g clip-path="url(#clip0_367_68947)"><rect width="960" height="125" rx="8" fill="#252A2E"/><path d="M308.191 67.5H310.081V56.9312H308.199L305.438 58.8721V60.6519L308.067 58.7915H308.191V67.5ZM312.718 67.5H320.057V65.9326H315.274V65.7788L317.391 63.728C319.317 61.875 319.896 60.9229 319.896 59.7217V59.6997C319.896 57.9199 318.416 56.6675 316.358 56.6675C314.154 56.6675 312.616 58.0444 312.616 60.0146L312.623 60.0366L314.381 60.0439L314.388 60.0146C314.388 58.9233 315.142 58.1836 316.263 58.1836C317.362 58.1836 318.028 58.8867 318.028 59.8608V59.8828C318.028 60.6958 317.625 61.2305 316.19 62.6807L312.718 66.2256V67.5ZM323.214 60.6519C323.888 60.6519 324.379 60.1392 324.379 59.4946C324.379 58.8428 323.888 58.3374 323.214 58.3374C322.547 58.3374 322.049 58.8428 322.049 59.4946C322.049 60.1392 322.547 60.6519 323.214 60.6519ZM323.214 66.0864C323.888 66.0864 324.379 65.5811 324.379 64.9292C324.379 64.2773 323.888 63.772 323.214 63.772C322.547 63.772 322.049 64.2773 322.049 64.9292C322.049 65.5811 322.547 66.0864 323.214 66.0864ZM331.366 67.5H333.175V65.4712H334.596V63.9111H333.175V56.9312H330.502C329.066 59.1138 327.565 61.5454 326.195 63.9258V65.4712H331.366V67.5ZM327.953 63.9551V63.8452C328.978 62.0508 330.202 60.0952 331.286 58.4399H331.395V63.9551H327.953ZM340.214 67.7124C342.646 67.7124 344.338 66.4526 344.338 64.6436V64.6289C344.338 63.2739 343.356 62.2266 341.943 61.9409V61.897C343.151 61.5747 343.957 60.6885 343.957 59.5532V59.5386C343.957 57.9126 342.404 56.7188 340.214 56.7188C338.024 56.7188 336.471 57.9126 336.471 59.5386V59.5532C336.471 60.6885 337.277 61.5747 338.486 61.897V61.9409C337.079 62.2266 336.091 63.2739 336.091 64.6289V64.6436C336.091 66.4526 337.782 67.7124 340.214 67.7124ZM340.214 61.2964C339.108 61.2964 338.339 60.6519 338.339 59.729V59.7144C338.339 58.7915 339.108 58.147 340.214 58.147C341.32 58.147 342.089 58.7915 342.089 59.7144V59.729C342.089 60.6519 341.32 61.2964 340.214 61.2964ZM340.214 66.2695C338.947 66.2695 338.046 65.5371 338.046 64.519V64.5044C338.046 63.479 338.932 62.7393 340.214 62.7393C341.488 62.7393 342.382 63.479 342.382 64.5044V64.519C342.382 65.5371 341.481 66.2695 340.214 66.2695Z" fill="#fff"/><g clip-path="url(#clip1_367_68947)"><path d="M591.355 61.7737H589.789C589.378 61.7737 589.106 62.0625 589.106 62.4825V67.4175C589.106 67.8375 589.378 68.1262 589.789 68.1262H591.355C591.766 68.1262 592.037 67.8375 592.037 67.4175V62.4825C592.037 62.0625 591.766 61.7737 591.355 61.7737ZM586.499 63.8037H584.933C584.521 63.8037 584.25 64.0837 584.25 64.5037V67.4175C584.25 67.8375 584.521 68.1262 584.933 68.1262H586.499C586.91 68.1262 587.181 67.8375 587.181 67.4175V64.5037C587.181 64.0837 586.91 63.8037 586.499 63.8037ZM596.211 59.4287H594.645C594.234 59.4287 593.963 59.7175 593.963 60.1375V67.4175C593.963 67.8375 594.234 68.1262 594.645 68.1262H596.211C596.614 68.1262 596.894 67.8375 596.894 67.4175V60.1375C596.894 59.7175 596.614 59.4287 596.211 59.4287ZM601.076 56.865H599.501C599.099 56.865 598.819 57.1537 598.819 57.5737V67.4175C598.819 67.8375 599.099 68.1262 599.501 68.1262H601.076C601.479 68.1262 601.75 67.8375 601.75 67.4175V57.5737C601.75 57.1537 601.479 56.865 601.076 56.865Z" fill="#fff"/></g><g clip-path="url(#clip2_367_68947)"><path opacity=".85" d="M619.001 65.0637C617.898 65.0637 616.962 65.6412 616.472 66.3062C616.393 66.4287 616.428 66.5687 616.551 66.6825L618.397 68.4587C618.695 68.7387 618.835 68.8262 619.001 68.8262C619.167 68.8262 619.316 68.7475 619.605 68.4587L621.46 66.6825C621.573 66.5687 621.6 66.4025 621.495 66.2625C621.005 65.6237 620.068 65.0725 618.992 65.0725L619.001 65.0637ZM619.001 60.6187C616.63 60.6187 614.503 61.6775 613.357 63.0775C613.243 63.2175 613.252 63.3662 613.383 63.5062L614.565 64.6875C614.731 64.845 614.941 64.8275 615.09 64.6612C616 63.6462 617.487 62.9112 619.01 62.92C620.541 62.92 622.037 63.6725 622.965 64.6875C623.105 64.845 623.288 64.8362 623.455 64.6875L624.636 63.515C624.758 63.3925 624.776 63.2262 624.662 63.0862C623.516 61.6775 621.39 60.6275 619.018 60.6275L619.001 60.6187ZM627.672 60.015C625.887 57.81 622.527 56.1912 619.001 56.1912C615.475 56.1912 612.106 57.81 610.33 60.015C610.225 60.1462 610.225 60.3125 610.356 60.4525L611.406 61.52C611.555 61.6687 611.773 61.6687 611.913 61.52C613.786 59.5337 616.245 58.4837 619.001 58.4837C621.757 58.4837 624.251 59.5425 626.106 61.52C626.246 61.66 626.447 61.6512 626.596 61.5025L627.646 60.4525C627.786 60.3125 627.777 60.1462 627.672 60.015Z" fill="#fff"/></g><g clip-path="url(#clip3_367_68947)"><path opacity=".85" d="M646.094 60.1375H638.945C638.525 60.1375 638.28 60.1987 638.114 60.365C637.956 60.5312 637.886 60.7762 637.886 61.1875V63.83C637.886 64.2412 637.948 64.4775 638.114 64.6437C638.28 64.81 638.525 64.8712 638.928 64.8712H646.094C646.505 64.8712 646.741 64.81 646.908 64.6437C647.074 64.4775 647.135 64.2412 647.135 63.83V61.1787C647.135 60.7675 647.074 60.5312 646.908 60.365C646.741 60.1987 646.505 60.1375 646.094 60.1375ZM648.692 58.5012H639.391C638.394 58.5012 637.545 58.5975 636.941 59.2012C636.337 59.805 636.25 60.6537 636.25 61.6337V63.3487C636.25 64.3637 636.337 65.195 636.941 65.7987C637.545 66.4025 638.394 66.4987 639.4 66.4987H648.692C649.707 66.4987 650.556 66.4025 651.16 65.7987C651.764 65.195 651.851 64.355 651.851 63.3487V61.6512C651.851 60.6362 651.764 59.805 651.16 59.2012C650.556 58.5975 649.707 58.5012 648.692 58.5012ZM650.898 63.5062C650.898 64.1187 650.819 64.7487 650.46 65.1075C650.101 65.4662 649.462 65.545 648.859 65.545H639.243C638.63 65.545 637.991 65.4662 637.632 65.1075C637.274 64.7487 637.204 64.11 637.204 63.5062V61.5025C637.204 60.8812 637.282 60.2512 637.632 59.8925C637.991 59.5337 638.639 59.455 639.26 59.455H648.859C649.471 59.455 650.11 59.5337 650.46 59.8925C650.819 60.2512 650.898 60.8812 650.898 61.485V63.5062ZM652.656 60.9687V64.0225C653.12 63.9962 653.75 63.3925 653.75 62.4912C653.75 61.59 653.12 60.995 652.656 60.9687Z" fill="#fff"/></g><path d="M3.93555 159H1.64062V148.199H3.93555V159ZM1.50391 145.338C1.50391 144.928 1.61458 144.612 1.83594 144.391C2.0638 144.169 2.38607 144.059 2.80273 144.059C3.20638 144.059 3.51888 144.169 3.74023 144.391C3.9681 144.612 4.08203 144.928 4.08203 145.338C4.08203 145.729 3.9681 146.038 3.74023 146.266C3.51888 146.487 3.20638 146.598 2.80273 146.598C2.38607 146.598 2.0638 146.487 1.83594 146.266C1.61458 146.038 1.50391 145.729 1.50391 145.338ZM20.3965 151.842C20.3965 154.166 19.8138 155.973 18.6484 157.262C17.4896 158.551 15.8457 159.195 13.7168 159.195C11.5618 159.195 9.90495 158.557 8.74609 157.281C7.59375 155.999 7.01758 154.179 7.01758 151.822C7.01758 149.465 7.59701 147.656 8.75586 146.393C9.92122 145.13 11.5814 144.498 13.7363 144.498C15.8587 144.498 17.4993 145.139 18.6582 146.422C19.8171 147.704 20.3965 149.511 20.3965 151.842ZM9.49805 151.842C9.49805 153.6 9.85286 154.934 10.5625 155.846C11.2721 156.751 12.3236 157.203 13.7168 157.203C15.1035 157.203 16.1484 156.754 16.8516 155.855C17.5612 154.957 17.916 153.619 17.916 151.842C17.916 150.09 17.5645 148.762 16.8613 147.857C16.1647 146.952 15.123 146.5 13.7363 146.5C12.3366 146.5 11.2786 146.952 10.5625 147.857C9.85286 148.762 9.49805 150.09 9.49805 151.842ZM31.9453 155.123C31.9453 156.393 31.4863 157.389 30.5684 158.111C29.6504 158.834 28.3841 159.195 26.7695 159.195C25.1549 159.195 23.8333 158.945 22.8047 158.443V156.236C23.4557 156.542 24.1458 156.783 24.875 156.959C25.6107 157.135 26.2943 157.223 26.9258 157.223C27.8503 157.223 28.5306 157.047 28.9668 156.695C29.4095 156.344 29.6309 155.872 29.6309 155.279C29.6309 154.745 29.429 154.293 29.0254 153.922C28.6217 153.551 27.7884 153.111 26.5254 152.604C25.2233 152.076 24.3053 151.474 23.7715 150.797C23.2376 150.12 22.9707 149.306 22.9707 148.355C22.9707 147.164 23.3939 146.227 24.2402 145.543C25.0866 144.859 26.2227 144.518 27.6484 144.518C29.0156 144.518 30.3763 144.817 31.7305 145.416L30.9883 147.32C29.7188 146.786 28.5859 146.52 27.5898 146.52C26.8346 146.52 26.2617 146.686 25.8711 147.018C25.4805 147.343 25.2852 147.776 25.2852 148.316C25.2852 148.688 25.3633 149.007 25.5195 149.273C25.6758 149.534 25.9329 149.781 26.291 150.016C26.6491 150.25 27.2936 150.559 28.2246 150.943C29.2728 151.38 30.041 151.786 30.5293 152.164C31.0176 152.542 31.3757 152.968 31.6035 153.443C31.8314 153.919 31.9453 154.479 31.9453 155.123Z" fill="#fff"/></g><defs><clipPath id="clip0_367_68947"><rect width="960" height="165" fill="#fff"/></clipPath><clipPath id="clip1_367_68947"><rect width="21" height="21" fill="#fff" transform="translate(582.5 52)"/></clipPath><clipPath id="clip2_367_68947"><rect width="21" height="21" fill="#fff" transform="translate(608.5 52)"/></clipPath><clipPath id="clip3_367_68947"><rect width="21" height="21" fill="#fff" transform="translate(634.5 52)"/></clipPath></defs></svg>
